X:17
T:Urfa divan
O:Kurdistan
M:4/4
K:G
e2z2e2z2|:ed/2d/2ecdee2|ed/2d/2ecdee2|ed/2d/2ecdd/2d/2de|
ed/2d/2ece/2_f/2e/2d/2e2|ed/2d/2ecdd/2d/2de|dc/2B/2cdc/2d/2B/2c/2A2|
A/2B/2A/2G/2ABcde2|ed/2e/2dc/2d/2cB/2c/2BA|A3cBAG2|
A/2B/2A/2G/2ABcde2|ed/2e/2dc/2d/2cB/2c/2BA|A3AAAA2:|
|:FGA2FGA2|AA/2c/2BAGFG/2A/2F/2G/2|EE/2E/2EDCB,A,2|
FGA2FGA2|AA/2c/2BAGFG/2A/2F/2G/2|EE/2E/2EDCDE2:|
ed/2d/2ecdee2|ed/2d/2ecdee2|ed/2d/2ecdd/2d/2de|
ed/2d/2ece/2_f/2e/2d/2e2|ed/2d/2ecdd/2d/2de|dc/2B/2cdc/2d/2B/2c/2A2|
A/2B/2A/2G/2ABcde2|ed/2e/2dc/2d/2cB/2c/2BA|A3cBAG2|
A/2B/2A/2G/2ABcde2|ed/2e/2dc/2d/2cB/2c/2BA|A3AAAA2|
|:cc/2c/2c/2c/2BBB/2B/2B/2B/2A|A/2G/2A/2B/2AGFED2|
c/2B/2c/2d/2cBB/2A/2B/2c/2BA|AA/2AA/2AD/2E/2F/2G/2A2:|
GAAFGAAF|GA/2B/2AGFED2|DEECDEEC|DEEDE/2DC/2D/2CB,/2|
CDDB,CDDB,|CD/2E/2DCD/2C/2C/2B,/2C/2B,/2B,/2A,/2|
A,/2B,/2A,/2G,/2A,B,CDE2|ED/2E/2DC/2D/2CB,/2C/2B,A,|A,A,/2A,A,/2CB,A,G,2|
GAAFGAAF|GA/2B/2AGFED2|DEECDEEC|DEEDE/2DC/2D/2CB,/2|
CDDB,CDDB,|CD/2E/2DCD/2C/2C/2B,/2C/2B,/2B,/2A,/2|
A,/2B,/2A,/2G,/2A,B,CDE2|ED/2E/2DC/2D/2CB,/2C/2B,A,|A,A,/2A,A,/2A,A,/2A,A,/2A,2|
ed/2d/2ecdee2|ed/2d/2ecdee2|ed/2d/2ecdd/2d/2de|
ed/2d/2ece/2_f/2e/2d/2e2|ed/2d/2ecdd/2d/2de|dc/2B/2cdc/2d/2B/2c/2A2|
A/2B/2A/2G/2ABcde2|ed/2e/2dc/2d/2cB/2c/2BA|A3cBAG2|
A/2B/2A/2G/2ABcde2|ed/2e/2dc/2d/2cB/2c/2BA|A3AAAA2||
